assets/icons/meditate.svg

<svg width="65" height="64" viewBox="0 0 65 64" fill="none" xmlns="http://www.w3.org/2000/svg">
<g clip-path="url(#clip0_973_987)">
<path d="M60.4809 40.884H58.335C57.6495 40.884 57.0053 40.5561 56.602 40.0018L44.5797 23.4775C43.6189 22.2204 42.1269 21.4829 40.5447 21.4829H37.9014C37.3304 21.4829 36.8674 21.02 36.8674 20.449V17.9996C36.8674 17.516 37.1147 17.0687 37.5188 16.8032C40.0323 15.1521 41.6823 12.2941 41.6445 9.05332C41.5861 4.06259 37.4581 0.00457189 32.467 0.0274399C27.4415 0.0505579 23.3747 4.13156 23.3747 9.16253C23.3747 12.3568 25.0142 15.1682 27.4976 16.8011C27.9029 17.0675 28.1523 17.5149 28.1523 18V20.449C28.1523 21.0199 27.6895 21.4829 27.1184 21.4829H23.7739C22.1916 21.4829 20.6997 22.2204 19.7389 23.4775L7.73567 40.1342C7.33292 40.6932 6.68599 41.0245 5.99695 41.0245H4.51903C2.29945 41.0243 0.5 42.8238 0.5 45.0435C0.5 47.2632 2.29933 49.0625 4.51903 49.0625H8.4672C6.03131 50.4233 4.38319 53.0257 4.38319 56.0141C4.38319 60.4098 7.94661 63.9732 12.3423 63.9732H46.0604L19.5722 49.2966C17.4666 48.4799 15.2235 48.0551 12.9533 48.0551H12.7973C13.1084 47.8065 13.3903 47.5176 13.6317 47.1898L21.2635 35.8255V45.8425C21.3005 45.86 21.3378 45.8765 21.3741 45.8966L32.5898 52.1128L43.0552 45.8346V35.8255L50.7065 47.0494C50.9589 47.3921 51.2553 47.6925 51.5833 47.9483C48.6898 47.9916 45.6341 48.7866 43.0552 50.219V50.2063L36.3777 54.2122L53.5156 63.7107C57.1745 62.9935 59.9355 59.7706 59.9355 55.9018V55.8636C59.9355 52.8615 58.2728 50.2664 55.8186 48.9222H60.481C62.7007 48.9222 64.5 47.1228 64.5 44.9031C64.5 42.6833 62.7006 40.884 60.4809 40.884Z" fill="#F6F6F6"/>
</g>
<defs>
<clipPath id="clip0_973_987">
<rect width="64" height="64" fill="white" transform="translate(0.5)"/>
</clipPath>
</defs>
</svg>

<svg width="65" height="64" fill="none" xmlns="http://www.w3.org/2000/svg"><g clip-path="url(#a)"><path d="M60.48 40.884h-2.145c-.685 0-1.33-.328-1.733-.882L44.58 23.477a5.079 5.079 0 0 0-4.035-1.994H37.9a1.034 1.034 0 0 1-1.034-1.034v-2.45c0-.483.248-.93.652-1.196a9.127 9.127 0 0 0 4.126-7.75c-.059-4.99-4.187-9.048-9.178-9.026a9.135 9.135 0 0 0-4.97 16.774c.406.267.655.714.655 1.199v2.449c0 .57-.463 1.034-1.034 1.034h-3.344a5.079 5.079 0 0 0-4.035 1.994L7.736 40.135c-.403.56-1.05.89-1.739.89H4.519a4.019 4.019 0 1 0 0 8.038h3.948a7.96 7.96 0 0 0 3.875 14.91H46.06L19.572 49.298a18.303 18.303 0 0 0-6.619-1.242h-.156a4.6 4.6 0 0 0 .835-.865l7.632-11.364v10.017c.037.017.074.033.11.054l11.216 6.216 10.465-6.278v-10.01l7.651 11.224a4.6 4.6 0 0 0 .877.9c-2.893.043-5.949.838-8.528 2.27v-.013l-6.677 4.006 17.138 9.499a7.96 7.96 0 0 0 6.42-7.81v-.037a7.896 7.896 0 0 0-4.117-6.942h4.662a4.019 4.019 0 1 0 0-8.038Z" fill="#F6F6F6"/></g><defs><clipPath id="a"><path fill="#fff" transform="translate(.5)" d="M0 0h64v64H0z"/></clipPath></defs></svg>
